X:20
T:Bidh Eoin
R:highland
H:also in Bm, #18
H:Also as a strathspey
Z:id:hn-hf-20
M:C|
L:1/8
K:Ador
cBAG EGDE | G2GA B<GG2 | cBAG EGD2 | edcB c<AAB :|
|: c2ce dcde | c2ce dBG2 | cBce d2cd | edcB c<AAB :|

